X: 1
T: Birdy Thirty
C: Noah VanNorstrand
R: reel
S: Fiddle Hell Online 2021-05-31
Z: 2021 John Chambers <jc:trillian.mit.edu>
M: 4/4
L: 1/8
K: A	# or maybe F#m or Bm
|: "F#m"FAce a2ga | "C#m"faec B3c | "Bm"BAFA EFA [1,3 B | "D"cABc "E"BAFE :|[2,4 E | "D"EFFE F3E :|
|: "F#m"FAcA dcAF | "C#m"BEED E3c | "E"BAFA EFA [1,3 B | "Bm"cABc BAFE :|[2,4 E | "Bm"EFFE F3E :|
% %text basic tune version
